images/3235180.svg

<?xml version="1.0" encoding="UTF-8"?>
<svg xmlns="http://www.w3.org/2000/svg" xmlns:xlink="http://www.w3.org/1999/xlink" width="300pt" height="300pt" viewBox="0 0 300 300" version="1.1">
<defs>
<g>
<symbol overflow="visible" id="glyph0-0">
<path style="stroke:none;" d="M 0.453125 1.59375 L 0.453125 -6.34375 L 4.953125 -6.34375 L 4.953125 1.59375 Z M 0.953125 1.09375 L 4.453125 1.09375 L 4.453125 -5.84375 L 0.953125 -5.84375 Z M 0.953125 1.09375 "/>
</symbol>
<symbol overflow="visible" id="glyph0-1">
<path style="stroke:none;" d="M 0.890625 -6.5625 L 2.078125 -6.5625 L 4.984375 -1.078125 L 4.984375 -6.5625 L 5.84375 -6.5625 L 5.84375 0 L 4.65625 0 L 1.75 -5.484375 L 1.75 0 L 0.890625 0 Z M 0.890625 -6.5625 "/>
</symbol>
<symbol overflow="visible" id="glyph0-2">
<path style="stroke:none;" d="M 3.546875 -5.953125 C 2.898438 -5.953125 2.382812 -5.710938 2 -5.234375 C 1.625 -4.753906 1.4375 -4.101562 1.4375 -3.28125 C 1.4375 -2.445312 1.625 -1.789062 2 -1.3125 C 2.382812 -0.832031 2.898438 -0.59375 3.546875 -0.59375 C 4.191406 -0.59375 4.703125 -0.832031 5.078125 -1.3125 C 5.453125 -1.789062 5.640625 -2.445312 5.640625 -3.28125 C 5.640625 -4.101562 5.453125 -4.753906 5.078125 -5.234375 C 4.703125 -5.710938 4.191406 -5.953125 3.546875 -5.953125 Z M 3.546875 -6.6875 C 4.460938 -6.6875 5.195312 -6.375 5.75 -5.75 C 6.300781 -5.132812 6.578125 -4.3125 6.578125 -3.28125 C 6.578125 -2.238281 6.300781 -1.410156 5.75 -0.796875 C 5.195312 -0.179688 4.460938 0.125 3.546875 0.125 C 2.617188 0.125 1.878906 -0.179688 1.328125 -0.796875 C 0.773438 -1.410156 0.5 -2.238281 0.5 -3.28125 C 0.5 -4.3125 0.773438 -5.132812 1.328125 -5.75 C 1.878906 -6.375 2.617188 -6.6875 3.546875 -6.6875 Z M 3.546875 -6.6875 "/>
</symbol>
<symbol overflow="visible" id="glyph0-3">
<path style="stroke:none;" d="M 0.890625 -6.5625 L 1.765625 -6.5625 L 1.765625 -3.875 L 5 -3.875 L 5 -6.5625 L 5.890625 -6.5625 L 5.890625 0 L 5 0 L 5 -3.125 L 1.765625 -3.125 L 1.765625 0 L 0.890625 0 Z M 0.890625 -6.5625 "/>
</symbol>
</g>
</defs>
<g id="surface39133">
<rect x="0" y="0" width="300" height="300" style="fill:rgb(100%,100%,100%);fill-opacity:1;stroke:none;"/>
<path style="fill:none;stroke-width:1.2;stroke-linecap:butt;stroke-linejoin:miter;stroke:rgb(0%,0%,0%);stroke-opacity:1;stroke-miterlimit:10;" d="M 35.25 183.082031 L 44.476562 175.839844 "/>
<path style="fill:none;stroke-width:1.2;stroke-linecap:butt;stroke-linejoin:miter;stroke:rgb(0%,0%,100%);stroke-opacity:1;stroke-miterlimit:10;" d="M 44.476562 175.839844 L 53.703125 168.597656 "/>
<path style="fill:none;stroke-width:1.2;stroke-linecap:butt;stroke-linejoin:miter;stroke:rgb(0%,0%,100%);stroke-opacity:1;stroke-miterlimit:10;" d="M 53.703125 168.597656 L 52.042969 156.988281 "/>
<path style="fill:none;stroke-width:1.2;stroke-linecap:butt;stroke-linejoin:miter;stroke:rgb(0%,0%,0%);stroke-opacity:1;stroke-miterlimit:10;" d="M 52.042969 156.988281 L 50.386719 145.378906 "/>
<path style="fill:none;stroke-width:1.2;stroke-linecap:butt;stroke-linejoin:miter;stroke:rgb(0%,0%,100%);stroke-opacity:1;stroke-miterlimit:10;" d="M 53.703125 168.597656 L 64.585938 172.96875 "/>
<path style="fill:none;stroke-width:1.2;stroke-linecap:butt;stroke-linejoin:miter;stroke:rgb(0%,0%,0%);stroke-opacity:1;stroke-miterlimit:10;" d="M 64.585938 172.96875 L 75.46875 177.339844 "/>
<path style=" stroke:none;fill-rule:nonzero;fill:rgb(100%,100%,100%);fill-opacity:1;" d="M 50.703125 163.097656 L 57.703125 163.097656 L 57.703125 174.097656 L 50.703125 174.097656 Z M 50.703125 163.097656 "/>
<g style="fill:rgb(0%,0%,100%);fill-opacity:1;">
  <use xlink:href="#glyph0-1" x="50.703125" y="171.760742"/>
</g>
<path style="fill:none;stroke-width:1.2;stroke-linecap:butt;stroke-linejoin:miter;stroke:rgb(0%,0%,0%);stroke-opacity:1;stroke-miterlimit:10;" d="M 72.738281 177.730469 L 74.394531 189.339844 "/>
<path style="fill:none;stroke-width:1.2;stroke-linecap:butt;stroke-linejoin:miter;stroke:rgb(100%,0%,0%);stroke-opacity:1;stroke-miterlimit:10;" d="M 74.394531 189.339844 L 76.054688 200.949219 "/>
<path style="fill:none;stroke-width:1.2;stroke-linecap:butt;stroke-linejoin:miter;stroke:rgb(0%,0%,0%);stroke-opacity:1;stroke-miterlimit:10;" d="M 78.203125 176.949219 L 79.859375 188.558594 "/>
<path style="fill:none;stroke-width:1.2;stroke-linecap:butt;stroke-linejoin:miter;stroke:rgb(100%,0%,0%);stroke-opacity:1;stroke-miterlimit:10;" d="M 79.859375 188.558594 L 81.515625 200.167969 "/>
<path style="fill:none;stroke-width:1.2;stroke-linecap:butt;stroke-linejoin:miter;stroke:rgb(0%,0%,0%);stroke-opacity:1;stroke-miterlimit:10;" d="M 75.46875 177.339844 L 93.921875 162.855469 "/>
<path style=" stroke:none;fill-rule:nonzero;fill:rgb(100%,100%,100%);fill-opacity:1;" d="M 74.785156 195.058594 L 82.785156 195.058594 L 82.785156 206.058594 L 74.785156 206.058594 Z M 74.785156 195.058594 "/>
<g style="fill:rgb(100%,0%,0%);fill-opacity:1;">
  <use xlink:href="#glyph0-2" x="74.785156" y="203.72168"/>
</g>
<path style="fill:none;stroke-width:1.2;stroke-linecap:butt;stroke-linejoin:miter;stroke:rgb(0%,0%,0%);stroke-opacity:1;stroke-miterlimit:10;" d="M 93.921875 162.855469 L 90.609375 139.636719 "/>
<path style="fill:none;stroke-width:1.2;stroke-linecap:butt;stroke-linejoin:miter;stroke:rgb(0%,0%,0%);stroke-opacity:1;stroke-miterlimit:10;" d="M 99.054688 159.753906 L 96.402344 141.175781 "/>
<path style="fill:none;stroke-width:1.2;stroke-linecap:butt;stroke-linejoin:miter;stroke:rgb(0%,0%,0%);stroke-opacity:1;stroke-miterlimit:10;" d="M 115.691406 171.597656 L 93.921875 162.855469 "/>
<path style="fill:none;stroke-width:1.2;stroke-linecap:butt;stroke-linejoin:miter;stroke:rgb(0%,0%,0%);stroke-opacity:1;stroke-miterlimit:10;" d="M 90.609375 139.636719 L 109.058594 125.152344 "/>
<path style="fill:none;stroke-width:1.2;stroke-linecap:butt;stroke-linejoin:miter;stroke:rgb(0%,0%,0%);stroke-opacity:1;stroke-miterlimit:10;" d="M 109.058594 125.152344 L 130.828125 133.894531 "/>
<path style="fill:none;stroke-width:1.2;stroke-linecap:butt;stroke-linejoin:miter;stroke:rgb(0%,0%,0%);stroke-opacity:1;stroke-miterlimit:10;" d="M 109.179688 131.148438 L 126.59375 138.140625 "/>
<path style="fill:none;stroke-width:1.2;stroke-linecap:butt;stroke-linejoin:miter;stroke:rgb(0%,0%,0%);stroke-opacity:1;stroke-miterlimit:10;" d="M 130.828125 133.894531 L 134.144531 157.113281 "/>
<path style="fill:none;stroke-width:1.2;stroke-linecap:butt;stroke-linejoin:miter;stroke:rgb(0%,0%,0%);stroke-opacity:1;stroke-miterlimit:10;" d="M 130.828125 133.894531 L 149.28125 119.410156 "/>
<path style="fill:none;stroke-width:1.2;stroke-linecap:butt;stroke-linejoin:miter;stroke:rgb(0%,0%,0%);stroke-opacity:1;stroke-miterlimit:10;" d="M 134.144531 157.113281 L 115.691406 171.597656 "/>
<path style="fill:none;stroke-width:1.2;stroke-linecap:butt;stroke-linejoin:miter;stroke:rgb(0%,0%,0%);stroke-opacity:1;stroke-miterlimit:10;" d="M 128.890625 154.222656 L 114.128906 165.804688 "/>
<path style="fill:none;stroke-width:1.2;stroke-linecap:butt;stroke-linejoin:miter;stroke:rgb(0%,0%,0%);stroke-opacity:1;stroke-miterlimit:10;" d="M 149.28125 119.410156 L 171.046875 128.152344 "/>
<path style="fill:none;stroke-width:1.2;stroke-linecap:butt;stroke-linejoin:miter;stroke:rgb(0%,0%,0%);stroke-opacity:1;stroke-miterlimit:10;" d="M 153.511719 115.164062 L 170.929688 122.15625 "/>
<path style="fill:none;stroke-width:1.2;stroke-linecap:butt;stroke-linejoin:miter;stroke:rgb(0%,0%,0%);stroke-opacity:1;stroke-miterlimit:10;" d="M 145.964844 96.191406 L 149.28125 119.410156 "/>
<path style="fill:none;stroke-width:1.2;stroke-linecap:butt;stroke-linejoin:miter;stroke:rgb(0%,0%,0%);stroke-opacity:1;stroke-miterlimit:10;" d="M 171.046875 128.152344 L 189.5 113.667969 "/>
<path style="fill:none;stroke-width:1.2;stroke-linecap:butt;stroke-linejoin:miter;stroke:rgb(0%,0%,0%);stroke-opacity:1;stroke-miterlimit:10;" d="M 189.5 113.667969 L 186.1875 90.449219 "/>
<path style="fill:none;stroke-width:1.2;stroke-linecap:butt;stroke-linejoin:miter;stroke:rgb(0%,0%,0%);stroke-opacity:1;stroke-miterlimit:10;" d="M 194.632812 110.566406 L 191.980469 91.992188 "/>
<path style="fill:none;stroke-width:1.2;stroke-linecap:butt;stroke-linejoin:miter;stroke:rgb(0%,0%,0%);stroke-opacity:1;stroke-miterlimit:10;" d="M 211.269531 122.410156 L 189.5 113.667969 "/>
<path style="fill:none;stroke-width:1.2;stroke-linecap:butt;stroke-linejoin:miter;stroke:rgb(0%,0%,0%);stroke-opacity:1;stroke-miterlimit:10;" d="M 186.1875 90.449219 L 164.417969 81.707031 "/>
<path style="fill:none;stroke-width:1.2;stroke-linecap:butt;stroke-linejoin:miter;stroke:rgb(0%,0%,0%);stroke-opacity:1;stroke-miterlimit:10;" d="M 186.1875 90.449219 L 195.410156 83.207031 "/>
<path style="fill:none;stroke-width:1.2;stroke-linecap:butt;stroke-linejoin:miter;stroke:rgb(0%,0%,100%);stroke-opacity:1;stroke-miterlimit:10;" d="M 195.410156 83.207031 L 204.636719 75.964844 "/>
<path style="fill:none;stroke-width:1.2;stroke-linecap:butt;stroke-linejoin:miter;stroke:rgb(0%,0%,0%);stroke-opacity:1;stroke-miterlimit:10;" d="M 164.417969 81.707031 L 145.964844 96.191406 "/>
<path style="fill:none;stroke-width:1.2;stroke-linecap:butt;stroke-linejoin:miter;stroke:rgb(0%,0%,0%);stroke-opacity:1;stroke-miterlimit:10;" d="M 165.980469 87.5 L 151.21875 99.085938 "/>
<path style="fill:none;stroke-width:1.2;stroke-linecap:butt;stroke-linejoin:miter;stroke:rgb(0%,0%,100%);stroke-opacity:1;stroke-miterlimit:10;" d="M 204.636719 75.964844 L 215.523438 80.335938 "/>
<path style="fill:none;stroke-width:1.2;stroke-linecap:butt;stroke-linejoin:miter;stroke:rgb(0%,0%,0%);stroke-opacity:1;stroke-miterlimit:10;" d="M 215.523438 80.335938 L 226.40625 84.707031 "/>
<path style="fill:none;stroke-width:1.2;stroke-linecap:butt;stroke-linejoin:miter;stroke:rgb(0%,0%,100%);stroke-opacity:1;stroke-miterlimit:10;" d="M 204.757812 81.960938 L 213.464844 85.457031 "/>
<path style="fill:none;stroke-width:1.2;stroke-linecap:butt;stroke-linejoin:miter;stroke:rgb(0%,0%,0%);stroke-opacity:1;stroke-miterlimit:10;" d="M 213.464844 85.457031 L 222.171875 88.953125 "/>
<path style=" stroke:none;fill-rule:nonzero;fill:rgb(100%,100%,100%);fill-opacity:1;" d="M 201.636719 70.464844 L 208.636719 70.464844 L 208.636719 81.464844 L 201.636719 81.464844 Z M 201.636719 70.464844 "/>
<g style="fill:rgb(0%,0%,100%);fill-opacity:1;">
  <use xlink:href="#glyph0-1" x="201.636719" y="79.12793"/>
</g>
<path style="fill:none;stroke-width:1.2;stroke-linecap:butt;stroke-linejoin:miter;stroke:rgb(0%,0%,0%);stroke-opacity:1;stroke-miterlimit:10;" d="M 226.40625 84.707031 L 228.0625 96.316406 "/>
<path style="fill:none;stroke-width:1.2;stroke-linecap:butt;stroke-linejoin:miter;stroke:rgb(0%,0%,100%);stroke-opacity:1;stroke-miterlimit:10;" d="M 228.0625 96.316406 L 229.722656 107.925781 "/>
<path style="fill:none;stroke-width:1.2;stroke-linecap:butt;stroke-linejoin:miter;stroke:rgb(0%,0%,100%);stroke-opacity:1;stroke-miterlimit:10;" d="M 229.722656 107.925781 L 220.496094 115.167969 "/>
<path style="fill:none;stroke-width:1.2;stroke-linecap:butt;stroke-linejoin:miter;stroke:rgb(0%,0%,0%);stroke-opacity:1;stroke-miterlimit:10;" d="M 220.496094 115.167969 L 211.269531 122.410156 "/>
<path style="fill:none;stroke-width:1.2;stroke-linecap:butt;stroke-linejoin:miter;stroke:rgb(0%,0%,100%);stroke-opacity:1;stroke-miterlimit:10;" d="M 224.46875 105.035156 L 217.085938 110.828125 "/>
<path style="fill:none;stroke-width:1.2;stroke-linecap:butt;stroke-linejoin:miter;stroke:rgb(0%,0%,0%);stroke-opacity:1;stroke-miterlimit:10;" d="M 217.085938 110.828125 L 209.707031 116.617188 "/>
<path style=" stroke:none;fill-rule:nonzero;fill:rgb(100%,100%,100%);fill-opacity:1;" d="M 226.722656 102.425781 L 233.722656 102.425781 L 233.722656 113.425781 L 226.722656 113.425781 Z M 226.722656 102.425781 "/>
<g style="fill:rgb(0%,0%,100%);fill-opacity:1;">
  <use xlink:href="#glyph0-1" x="226.722656" y="111.088867"/>
</g>
<path style="fill:none;stroke-width:1.2;stroke-linecap:butt;stroke-linejoin:miter;stroke:rgb(0%,0%,0%);stroke-opacity:1;stroke-miterlimit:10;" d="M 211.269531 122.410156 L 212.925781 134.019531 "/>
<path style="fill:none;stroke-width:1.2;stroke-linecap:butt;stroke-linejoin:miter;stroke:rgb(0%,0%,100%);stroke-opacity:1;stroke-miterlimit:10;" d="M 212.925781 134.019531 L 214.582031 145.628906 "/>
<path style="fill:none;stroke-width:1.2;stroke-linecap:butt;stroke-linejoin:miter;stroke:rgb(0%,0%,100%);stroke-opacity:1;stroke-miterlimit:10;" d="M 214.582031 145.628906 L 225.46875 150 "/>
<path style="fill:none;stroke-width:1.2;stroke-linecap:butt;stroke-linejoin:miter;stroke:rgb(0%,0%,0%);stroke-opacity:1;stroke-miterlimit:10;" d="M 225.46875 150 L 236.351562 154.371094 "/>
<path style=" stroke:none;fill-rule:nonzero;fill:rgb(100%,100%,100%);fill-opacity:1;" d="M 207.582031 140.128906 L 221.582031 140.128906 L 221.582031 151.128906 L 207.582031 151.128906 Z M 207.582031 140.128906 "/>
<g style="fill:rgb(0%,0%,100%);fill-opacity:1;">
  <use xlink:href="#glyph0-1" x="207.582031" y="148.791992"/>
  <use xlink:href="#glyph0-3" x="214.55957" y="148.791992"/>
</g>
<path style="fill:none;stroke-width:1.2;stroke-linecap:butt;stroke-linejoin:miter;stroke:rgb(0%,0%,0%);stroke-opacity:1;stroke-miterlimit:10;" d="M 236.351562 154.371094 L 239.667969 177.589844 "/>
<path style="fill:none;stroke-width:1.2;stroke-linecap:butt;stroke-linejoin:miter;stroke:rgb(0%,0%,0%);stroke-opacity:1;stroke-miterlimit:10;" d="M 239.667969 177.589844 L 221.214844 192.074219 "/>
<path style="fill:none;stroke-width:1.2;stroke-linecap:butt;stroke-linejoin:miter;stroke:rgb(0%,0%,0%);stroke-opacity:1;stroke-miterlimit:10;" d="M 241.230469 183.382812 L 226.46875 194.964844 "/>
<path style="fill:none;stroke-width:1.2;stroke-linecap:butt;stroke-linejoin:miter;stroke:rgb(0%,0%,0%);stroke-opacity:1;stroke-miterlimit:10;" d="M 261.433594 186.332031 L 239.667969 177.589844 "/>
<path style="fill:none;stroke-width:1.2;stroke-linecap:butt;stroke-linejoin:miter;stroke:rgb(0%,0%,0%);stroke-opacity:1;stroke-miterlimit:10;" d="M 221.214844 192.074219 L 222.871094 203.683594 "/>
<path style="fill:none;stroke-width:1.2;stroke-linecap:butt;stroke-linejoin:miter;stroke:rgb(0%,0%,100%);stroke-opacity:1;stroke-miterlimit:10;" d="M 222.871094 203.683594 L 224.53125 215.292969 "/>
<path style="fill:none;stroke-width:1.2;stroke-linecap:butt;stroke-linejoin:miter;stroke:rgb(0%,0%,100%);stroke-opacity:1;stroke-miterlimit:10;" d="M 224.53125 215.292969 L 235.414062 219.664062 "/>
<path style="fill:none;stroke-width:1.2;stroke-linecap:butt;stroke-linejoin:miter;stroke:rgb(0%,0%,0%);stroke-opacity:1;stroke-miterlimit:10;" d="M 235.414062 219.664062 L 246.296875 224.035156 "/>
<path style="fill:none;stroke-width:1.2;stroke-linecap:butt;stroke-linejoin:miter;stroke:rgb(0%,0%,100%);stroke-opacity:1;stroke-miterlimit:10;" d="M 228.761719 211.046875 L 237.46875 214.542969 "/>
<path style="fill:none;stroke-width:1.2;stroke-linecap:butt;stroke-linejoin:miter;stroke:rgb(0%,0%,0%);stroke-opacity:1;stroke-miterlimit:10;" d="M 237.46875 214.542969 L 246.175781 218.039062 "/>
<path style=" stroke:none;fill-rule:nonzero;fill:rgb(100%,100%,100%);fill-opacity:1;" d="M 221.53125 209.792969 L 228.53125 209.792969 L 228.53125 220.792969 L 221.53125 220.792969 Z M 221.53125 209.792969 "/>
<g style="fill:rgb(0%,0%,100%);fill-opacity:1;">
  <use xlink:href="#glyph0-1" x="221.53125" y="218.456055"/>
</g>
<path style="fill:none;stroke-width:1.2;stroke-linecap:butt;stroke-linejoin:miter;stroke:rgb(0%,0%,0%);stroke-opacity:1;stroke-miterlimit:10;" d="M 246.296875 224.035156 L 264.75 209.550781 "/>
<path style="fill:none;stroke-width:1.2;stroke-linecap:butt;stroke-linejoin:miter;stroke:rgb(0%,0%,0%);stroke-opacity:1;stroke-miterlimit:10;" d="M 264.75 209.550781 L 261.433594 186.332031 "/>
<path style="fill:none;stroke-width:1.2;stroke-linecap:butt;stroke-linejoin:miter;stroke:rgb(0%,0%,0%);stroke-opacity:1;stroke-miterlimit:10;" d="M 258.953125 208.007812 L 256.300781 189.433594 "/>
</g>
</svg>

<svg xmlns="http://www.w3.org/2000/svg" xmlns:xlink="http://www.w3.org/1999/xlink" width="300pt" height="300pt" viewBox="0 0 300 300"><defs><symbol overflow="visible"><path d="M.453 1.594v-7.938h4.5v7.938zm.5-.5h3.5v-6.938h-3.5zm0 0"/></symbol><symbol overflow="visible" id="a"><path d="M.89-6.563H2.08l2.906 5.485v-5.484h.86V0H4.656L1.75-5.484V0H.89zm0 0"/></symbol><symbol overflow="visible" id="b"><path d="M3.547-5.953c-.65 0-1.164.242-1.547.72-.375.48-.563 1.13-.563 1.952 0 .835.188 1.49.563 1.967.383.48.898.72 1.547.72.644 0 1.156-.24 1.53-.72.376-.476.564-1.132.564-1.968 0-.822-.187-1.474-.562-1.954-.375-.477-.887-.72-1.53-.72zm0-.734c.914 0 1.648.312 2.203.937.55.617.828 1.438.828 2.47 0 1.042-.277 1.87-.828 2.483-.555.617-1.29.922-2.203.922-.93 0-1.668-.305-2.22-.922C.774-1.41.5-2.237.5-3.28c0-1.033.273-1.853.828-2.47.55-.625 1.29-.938 2.22-.938zm0 0"/></symbol><symbol overflow="visible" id="c"><path d="M.89-6.563h.876v2.688H5v-2.688h.89V0H5v-3.125H1.766V0H.89zm0 0"/></symbol></defs><g><path fill="#fff" d="M0 0h300v300H0z"/><path d="M35.25 183.082l9.227-7.242" stroke-width="1.2" stroke="#000" stroke-miterlimit="10" fill="none"/><path d="M44.477 175.84l9.226-7.242M53.703 168.598l-1.66-11.61" stroke-width="1.2" stroke="#00f" stroke-miterlimit="10" fill="none"/><path d="M52.043 156.988l-1.656-11.61" stroke-width="1.2" stroke="#000" stroke-miterlimit="10" fill="none"/><path d="M53.703 168.598l10.883 4.37" stroke-width="1.2" stroke="#00f" stroke-miterlimit="10" fill="none"/><path d="M64.586 172.97l10.883 4.37" stroke-width="1.2" stroke="#000" stroke-miterlimit="10" fill="none"/><path d="M50.703 163.098h7v11h-7zm0 0" fill="#fff"/><use xlink:href="#a" x="50.703" y="171.761" fill="#00f"/><path d="M72.738 177.73l1.657 11.61" stroke-width="1.2" stroke="#000" stroke-miterlimit="10" fill="none"/><path d="M74.395 189.34l1.66 11.61" stroke-width="1.2" stroke="#f00" stroke-miterlimit="10" fill="none"/><path d="M78.203 176.95l1.656 11.61" stroke-width="1.2" stroke="#000" stroke-miterlimit="10" fill="none"/><path d="M79.86 188.56l1.656 11.608" stroke-width="1.2" stroke="#f00" stroke-miterlimit="10" fill="none"/><path d="M75.47 177.34l18.452-14.485" stroke-width="1.2" stroke="#000" stroke-miterlimit="10" fill="none"/><path d="M74.785 195.06h8v11h-8zm0 0" fill="#fff"/><use xlink:href="#b" x="74.785" y="203.722" fill="#f00"/><path d="M93.922 162.855l-3.313-23.218M99.055 159.754l-2.653-18.578M115.69 171.598l-21.768-8.743M90.61 139.637l18.45-14.485M109.06 125.152l21.768 8.743M109.18 131.148l17.414 6.993M130.828 133.895l3.317 23.218M130.828 133.895l18.453-14.485M134.145 157.113l-18.454 14.485M128.89 154.223l-14.76 11.582M149.28 119.41l21.767 8.742M153.512 115.164l17.418 6.992M145.965 96.19l3.316 23.22M171.047 128.152l18.453-14.484M189.5 113.668l-3.313-23.22M194.633 110.566l-2.653-18.574M211.27 122.41l-21.77-8.742M186.188 90.45l-21.77-8.743M186.188 90.45l9.222-7.243" stroke-width="1.2" stroke="#000" stroke-miterlimit="10" fill="none"/><path d="M195.41 83.207l9.227-7.242" stroke-width="1.2" stroke="#00f" stroke-miterlimit="10" fill="none"/><path d="M164.418 81.707L145.965 96.19M165.98 87.5l-14.76 11.586" stroke-width="1.2" stroke="#000" stroke-miterlimit="10" fill="none"/><path d="M204.637 75.965l10.886 4.37" stroke-width="1.2" stroke="#00f" stroke-miterlimit="10" fill="none"/><path d="M215.523 80.336l10.883 4.37" stroke-width="1.2" stroke="#000" stroke-miterlimit="10" fill="none"/><path d="M204.758 81.96l8.707 3.497" stroke-width="1.2" stroke="#00f" stroke-miterlimit="10" fill="none"/><path d="M213.465 85.457l8.707 3.496" stroke-width="1.2" stroke="#000" stroke-miterlimit="10" fill="none"/><path d="M201.637 70.465h7v11h-7zm0 0" fill="#fff"/><use xlink:href="#a" x="201.637" y="79.128" fill="#00f"/><path d="M226.406 84.707l1.656 11.61" stroke-width="1.2" stroke="#000" stroke-miterlimit="10" fill="none"/><path d="M228.063 96.316l1.66 11.61M229.723 107.926l-9.227 7.242" stroke-width="1.2" stroke="#00f" stroke-miterlimit="10" fill="none"/><path d="M220.496 115.168l-9.226 7.242" stroke-width="1.2" stroke="#000" stroke-miterlimit="10" fill="none"/><path d="M224.47 105.035l-7.384 5.793" stroke-width="1.2" stroke="#00f" stroke-miterlimit="10" fill="none"/><path d="M217.086 110.828l-7.38 5.79" stroke-width="1.2" stroke="#000" stroke-miterlimit="10" fill="none"/><path d="M226.723 102.426h7v11h-7zm0 0" fill="#fff"/><use xlink:href="#a" x="226.723" y="111.089" fill="#00f"/><path d="M211.27 122.41l1.656 11.61" stroke-width="1.2" stroke="#000" stroke-miterlimit="10" fill="none"/><path d="M212.926 134.02l1.656 11.61M214.582 145.63L225.47 150" stroke-width="1.2" stroke="#00f" stroke-miterlimit="10" fill="none"/><path d="M225.47 150l10.882 4.37" stroke-width="1.2" stroke="#000" stroke-miterlimit="10" fill="none"/><path d="M207.582 140.13h14v11h-14zm0 0" fill="#fff"/><g fill="#00f"><use xlink:href="#a" x="207.582" y="148.792"/><use xlink:href="#c" x="214.56" y="148.792"/></g><path d="M236.352 154.37l3.316 23.22M239.668 177.59l-18.453 14.484M241.23 183.383l-14.76 11.582M261.434 186.332l-21.766-8.742M221.215 192.074l1.656 11.61" stroke-width="1.2" stroke="#000" stroke-miterlimit="10" fill="none"/><path d="M222.87 203.684l1.66 11.61M224.53 215.293l10.884 4.37" stroke-width="1.2" stroke="#00f" stroke-miterlimit="10" fill="none"/><path d="M235.414 219.664l10.883 4.37" stroke-width="1.2" stroke="#000" stroke-miterlimit="10" fill="none"/><path d="M228.762 211.047l8.707 3.496" stroke-width="1.2" stroke="#00f" stroke-miterlimit="10" fill="none"/><path d="M237.47 214.543l8.706 3.496" stroke-width="1.2" stroke="#000" stroke-miterlimit="10" fill="none"/><path d="M221.53 209.793h7v11h-7zm0 0" fill="#fff"/><use xlink:href="#a" x="221.531" y="218.456" fill="#00f"/><path d="M246.297 224.035l18.453-14.484M264.75 209.55l-3.316-23.218M258.953 208.008l-2.652-18.574" stroke-width="1.2" stroke="#000" stroke-miterlimit="10" fill="none"/></g></svg>
